images/envelope.svg

<svg width="17" height="10" viewBox="0 0 17 10" fill="none" xmlns="http://www.w3.org/2000/svg">
<path d="M14.9614 0.0896301H2.00455C1.18014 0.0896301 0.509521 0.633179 0.509521 1.30138V8.57182C0.509521 9.24002 1.18014 9.78357 2.00455 9.78357H14.9614C15.7858 9.78357 16.4564 9.24002 16.4564 8.57182V1.30138C16.4564 0.633179 15.7858 0.0896301 14.9614 0.0896301ZM14.9614 0.897454C15.0291 0.897454 15.0935 0.908839 15.1524 0.928724L8.48298 5.61386L1.81351 0.928724C1.8724 0.908866 1.93681 0.897454 2.00452 0.897454H14.9614ZM14.9614 8.97572H2.00455C1.7296 8.97572 1.5062 8.79468 1.5062 8.57179V1.7822L8.15642 6.45363C8.25036 6.51949 8.36667 6.55225 8.48298 6.55225C8.59929 6.55225 8.71559 6.51952 8.80953 6.45363L15.4598 1.7822V8.57182C15.4597 8.79468 15.2364 8.97572 14.9614 8.97572Z" fill="#2196F3"/>
</svg>

<svg width="17" height="10" fill="none" xmlns="http://www.w3.org/2000/svg"><path d="M14.961.09H2.005C1.18.09.51.633.51 1.3v7.27c0 .669.67 1.213 1.495 1.213H14.96c.825 0 1.495-.544 1.495-1.212v-7.27c0-.669-.67-1.212-1.495-1.212zm0 .807c.068 0 .133.012.191.032L8.483 5.614 1.813.929a.598.598 0 01.192-.032H14.96zm0 8.079H2.005c-.275 0-.499-.181-.499-.404v-6.79l6.65 4.672c.094.065.21.098.327.098a.57.57 0 00.327-.098l6.65-4.672v6.79c0 .223-.224.404-.499.404z" fill="#2196F3"/></svg>
